docs/public/img/intune.svg

<svg fill="none" viewBox=".69 5.4 400 390.62" xmlns="http://www.w3.org/2000/svg" xmlns:xlink="http://www.w3.org/1999/xlink"><linearGradient id="a" gradientUnits="userSpaceOnUse" x1="171.501" x2="314.256" y1="396.026" y2="90.565"><stop offset=".02" stop-color="#1169da"/><stop offset=".435" stop-color="#0151bd"/><stop offset=".614" stop-color="#014db7"/><stop offset="1" stop-color="#126ad9"/></linearGradient><radialGradient id="b" cx="0" cy="0" gradientTransform="matrix(-101.02759 274.23041 -205.4204 -75.6777 358.656 -48.704)" gradientUnits="userSpaceOnUse" r="1"><stop offset=".423" stop-color="#004aff" stop-opacity=".1"/><stop offset=".729" stop-color="#014db9"/><stop offset=".836" stop-color="#014db9" stop-opacity=".9"/><stop offset=".955" stop-color="#014db9" stop-opacity="0"/></radialGradient><radialGradient id="c" cx="0" cy="0" gradientTransform="matrix(65.52351 -223.25113 271.94806 79.81591 54.082 384.087)" gradientUnits="userSpaceOnUse" r="1"><stop offset=".091" stop-color="#004aff" stop-opacity=".1"/><stop offset=".56" stop-color="#014db9"/><stop offset=".749" stop-color="#014db9" stop-opacity=".99"/><stop offset="1" stop-color="#014db9" stop-opacity="0"/></radialGradient><radialGradient id="d" cx="0" cy="0" gradientTransform="matrix(-392.23864143 405.21148308 -312.10417239 -302.11216038 439.444601 5.400514)" gradientUnits="userSpaceOnUse" r="1"><stop offset=".249" stop-color="#23c0fe"/><stop offset=".717" stop-color="#23c0fe"/><stop offset=".995" stop-color="#1c91ff"/></radialGradient><radialGradient id="e" cx="0" cy="0" gradientTransform="matrix(280.72436 289.77816 -68.9357 66.78188 119.961 37.11)" gradientUnits="userSpaceOnUse" r="1"><stop offset=".165" stop-color="#096dd6" stop-opacity="0"/><stop offset=".484" stop-color="#096dd6"/><stop offset=".901" stop-color="#0876de" stop-opacity=".814"/><stop offset="1" stop-color="#029aff" stop-opacity="0"/></radialGradient><radialGradient id="f" cx="0" cy="0" gradientTransform="matrix(-1.82049 64.77342 -58.33247 -1.63946 385.776 245.022)" gradientUnits="userSpaceOnUse" r="1"><stop offset="0" stop-color="#0068b3"/><stop offset=".93" stop-color="#006cb8" stop-opacity="0"/></radialGradient><linearGradient id="g" gradientUnits="userSpaceOnUse" x1="114.72" x2="182.067" y1="97.523" y2="383.699"><stop offset="0" stop-color="#92eefe"/><stop offset=".565" stop-color="#35ddff"/><stop offset="1" stop-color="#08b1f9"/></linearGradient><radialGradient id="h" cx="0" cy="0" gradientTransform="matrix(34.9665 93.32844 -75.38178 28.2426 67.78 5.401)" gradientUnits="userSpaceOnUse" r="1"><stop offset="0" stop-color="#ccf9ff" stop-opacity=".93"/><stop offset="1" stop-color="#35ddff"/></radialGradient><clipPath id="i"><path d="m0 0h400v400h-400z" transform="translate(.685 .714)"/></clipPath><g clip-path="url(#i)"><path d="m.685 65.852c0-51.087 66.8-79.055 110.931-46.444l95.935 70.846 80.963-45.881c42.791-23.334 111.36-6.598 112.171 57.186v235.063c0 51.088-64.84 77.721-108.97 45.11l-97.684-72.392-81.058 45.89c-43.195 23.554-112.22 5.484-112.22-56.593 0-74.513-.068-45.903-.068-232.785z" fill="url(#a)"/><path d="m.685 65.852c0-51.087 66.8-79.055 110.931-46.444l95.935 70.846 80.963-45.881c42.791-23.334 111.36-6.598 112.171 57.186v235.063c0 51.088-64.84 77.721-108.97 45.11l-97.684-72.392-81.058 45.89c-43.195 23.554-112.22 5.484-112.22-56.593 0-74.513-.068-45.903-.068-232.785z" fill="url(#b)"/><path d="m.685 65.852c0-51.087 66.8-79.055 110.931-46.444l95.935 70.846 80.963-45.881c42.791-23.334 111.36-6.598 112.171 57.186v235.063c0 51.088-64.84 77.721-108.97 45.11l-97.684-72.392-81.058 45.89c-43.195 23.554-112.22 5.484-112.22-56.593 0-74.513-.068-45.903-.068-232.785z" fill="url(#c)"/><path d="m111.616 19.408c-44.13-32.61-110.93-4.643-110.93 46.444v229.89c0-5.589 2.847-16.716 2.847-16.716 13.162-43.025 69.116-59.157 107.827-30.803l180.355 133.509c44.13 32.611 108.97 5.978 108.97-45.11v-235.063c0 43.642-57.042 87.452-110.93 49.492z" fill="url(#d)"/><path d="m111.616 19.408c-44.13-32.61-110.93-4.643-110.93 46.444v229.89c0-5.589 2.847-16.716 2.847-16.716 13.162-43.025 69.116-59.157 107.827-30.803l180.355 133.509c44.13 32.611 108.97 5.978 108.97-45.11v-235.063c0 43.642-57.042 87.452-110.93 49.492z" fill="url(#e)" fill-opacity=".25"/><path d="m111.616 19.408c-44.13-32.61-110.93-4.643-110.93 46.444v229.89c0-5.589 2.847-16.716 2.847-16.716 13.162-43.025 69.116-59.157 107.827-30.803l180.355 133.509c44.13 32.611 108.97 5.978 108.97-45.11v-235.063c0 43.642-57.042 87.452-110.93 49.492z" fill="url(#f)" fill-opacity=".55"/><path d="m111.616 149.691c-44.13-32.611-110.93-4.643-110.93 46.444v-130.283c0-51.087 66.8-79.055 110.93-46.444 59.38 43.88 118.758 87.763 178.139 131.643 53.888 37.96 110.93-5.85 110.93-49.492v133.331c0 51.088-66.8 79.056-110.93 46.444-59.381-43.88-118.759-87.762-178.139-131.643z" fill="url(#g)"/><path d="m111.616 149.691c-44.13-32.611-110.93-4.643-110.93 46.444v-130.283c0-51.087 66.8-79.055 110.93-46.444 59.38 43.88 118.758 87.763 178.139 131.643 53.888 37.96 110.93-5.85 110.93-49.492v133.331c0 51.088-66.8 79.056-110.93 46.444-59.381-43.88-118.759-87.762-178.139-131.643z" fill="url(#h)" fill-opacity=".35"/></g></svg>

<svg xmlns="http://www.w3.org/2000/svg" fill="none" viewBox="0.69 5.4 400 390.62"><g clip-path="url(#clip0_10641_164)"><path d="M.685 65.852c0-51.087 66.8-79.055 110.931-46.444l95.935 70.846 80.963-45.881c42.791-23.334 111.36-6.598 112.171 57.186v235.063c0 51.088-64.84 77.721-108.97 45.11l-97.684-72.392-81.058 45.89C69.778 378.784.753 360.714.753 298.637c0-74.513-.068-45.903-.068-232.785z" fill="url(#paint0_linear_10641_164)"/><path d="M.685 65.852c0-51.087 66.8-79.055 110.931-46.444l95.935 70.846 80.963-45.881c42.791-23.334 111.36-6.598 112.171 57.186v235.063c0 51.088-64.84 77.721-108.97 45.11l-97.684-72.392-81.058 45.89C69.778 378.784.753 360.714.753 298.637c0-74.513-.068-45.903-.068-232.785z" fill="url(#paint1_radial_10641_164)"/><path d="M.685 65.852c0-51.087 66.8-79.055 110.931-46.444l95.935 70.846 80.963-45.881c42.791-23.334 111.36-6.598 112.171 57.186v235.063c0 51.088-64.84 77.721-108.97 45.11l-97.684-72.392-81.058 45.89C69.778 378.784.753 360.714.753 298.637c0-74.513-.068-45.903-.068-232.785z" fill="url(#paint2_radial_10641_164)"/><path d="M111.616 19.408C67.486-13.202.686 14.765.686 65.852v229.89c0-5.589 2.847-16.716 2.847-16.716 13.162-43.025 69.116-59.157 107.827-30.803l180.355 133.509c44.13 32.611 108.97 5.978 108.97-45.11V101.559c0 43.642-57.042 87.452-110.93 49.492L111.616 19.408z" fill="url(#paint3_radial_10641_164)"/><path d="M111.616 19.408C67.486-13.202.686 14.765.686 65.852v229.89c0-5.589 2.847-16.716 2.847-16.716 13.162-43.025 69.116-59.157 107.827-30.803l180.355 133.509c44.13 32.611 108.97 5.978 108.97-45.11V101.559c0 43.642-57.042 87.452-110.93 49.492L111.616 19.408z" fill="url(#paint4_radial_10641_164)" fill-opacity=".25"/><path d="M111.616 19.408C67.486-13.202.686 14.765.686 65.852v229.89c0-5.589 2.847-16.716 2.847-16.716 13.162-43.025 69.116-59.157 107.827-30.803l180.355 133.509c44.13 32.611 108.97 5.978 108.97-45.11V101.559c0 43.642-57.042 87.452-110.93 49.492L111.616 19.408z" fill="url(#paint5_radial_10641_164)" fill-opacity=".55"/><path d="M111.616 149.691C67.486 117.08.686 145.048.686 196.135V65.852c0-51.087 66.8-79.055 110.93-46.444 59.38 43.88 118.758 87.763 178.139 131.643 53.888 37.96 110.93-5.85 110.93-49.492V234.89c0 51.088-66.8 79.056-110.93 46.444-59.381-43.88-118.759-87.762-178.139-131.643z" fill="url(#paint6_linear_10641_164)"/><path d="M111.616 149.691C67.486 117.08.686 145.048.686 196.135V65.852c0-51.087 66.8-79.055 110.93-46.444 59.38 43.88 118.758 87.763 178.139 131.643 53.888 37.96 110.93-5.85 110.93-49.492V234.89c0 51.088-66.8 79.056-110.93 46.444-59.381-43.88-118.759-87.762-178.139-131.643z" fill="url(#paint7_radial_10641_164)" fill-opacity=".35"/></g><defs><linearGradient id="paint0_linear_10641_164" x1="171.501" y1="396.026" x2="314.256" y2="90.565" gradientUnits="userSpaceOnUse"><stop offset=".02" stop-color="#1169DA"/><stop offset=".435" stop-color="#0151BD"/><stop offset=".614" stop-color="#014DB7"/><stop offset="1" stop-color="#126AD9"/></linearGradient><radialGradient id="paint1_radial_10641_164" cx="0" cy="0" r="1" gradientUnits="userSpaceOnUse" gradientTransform="matrix(-101.02759 274.23041 -205.4204 -75.6777 358.656 -48.704)"><stop offset=".423" stop-color="#004AFF" stop-opacity=".1"/><stop offset=".729" stop-color="#014DB9"/><stop offset=".836" stop-color="#014DB9" stop-opacity=".9"/><stop offset=".955" stop-color="#014DB9" stop-opacity="0"/></radialGradient><radialGradient id="paint2_radial_10641_164" cx="0" cy="0" r="1" gradientUnits="userSpaceOnUse" gradientTransform="matrix(65.52351 -223.25113 271.94806 79.81591 54.082 384.087)"><stop offset=".091" stop-color="#004AFF" stop-opacity=".1"/><stop offset=".56" stop-color="#014DB9"/><stop offset=".749" stop-color="#014DB9" stop-opacity=".99"/><stop offset="1" stop-color="#014DB9" stop-opacity="0"/></radialGradient><radialGradient id="paint3_radial_10641_164" cx="0" cy="0" r="1" gradientUnits="userSpaceOnUse" gradientTransform="rotate(134.068 218.578 95.813) scale(563.957 434.374)"><stop offset=".249" stop-color="#23C0FE"/><stop offset=".717" stop-color="#23C0FE"/><stop offset=".995" stop-color="#1C91FF"/></radialGradient><radialGradient id="paint4_radial_10641_164" cx="0" cy="0" r="1" gradientUnits="userSpaceOnUse" gradientTransform="matrix(280.72436 289.77816 -68.9357 66.78188 119.961 37.11)"><stop offset=".165" stop-color="#096DD6" stop-opacity="0"/><stop offset=".484" stop-color="#096DD6"/><stop offset=".901" stop-color="#0876DE" stop-opacity=".814"/><stop offset="1" stop-color="#029AFF" stop-opacity="0"/></radialGradient><radialGradient id="paint5_radial_10641_164" cx="0" cy="0" r="1" gradientUnits="userSpaceOnUse" gradientTransform="matrix(-1.82049 64.77342 -58.33247 -1.63946 385.776 245.022)"><stop stop-color="#0068B3"/><stop offset=".93" stop-color="#006CB8" stop-opacity="0"/></radialGradient><linearGradient id="paint6_linear_10641_164" x1="114.72" y1="97.523" x2="182.067" y2="383.699" gradientUnits="userSpaceOnUse"><stop stop-color="#92EEFE"/><stop offset=".565" stop-color="#35DDFF"/><stop offset="1" stop-color="#08B1F9"/></linearGradient><radialGradient id="paint7_radial_10641_164" cx="0" cy="0" r="1" gradientUnits="userSpaceOnUse" gradientTransform="matrix(34.9665 93.32844 -75.38178 28.2426 67.78 5.401)"><stop stop-color="#CCF9FF" stop-opacity=".93"/><stop offset="1" stop-color="#35DDFF"/></radialGradient><clipPath id="clip0_10641_164"><path fill="#fff" transform="translate(.685 .714)" d="M0 0H400V400H0z"/></clipPath></defs></svg>
